images/Button.svg

<svg width="160" height="36" viewBox="0 0 160 36" fill="none" xmlns="http://www.w3.org/2000/svg">
<rect width="160" height="36" rx="4" fill="#756157"/>
<path d="M37.9828 18.304L34.8628 12.8H37.5028L39.2308 16.032L39.6148 17.168L39.9828 16.032L41.7908 12.8H44.1748L40.9428 18.192L44.3348 24H41.7268L39.7588 20.544L39.3268 19.36L38.9108 20.544L36.9268 24H34.5428L37.9828 18.304ZM44.8971 18.4C44.8971 16.5333 45.3077 15.0987 46.1291 14.096C46.9504 13.0827 48.1237 12.576 49.6491 12.576C50.4491 12.576 51.1477 12.7147 51.7451 12.992C52.3424 13.2693 52.8384 13.664 53.2331 14.176C53.6277 14.688 53.9211 15.3013 54.1131 16.016C54.3051 16.7307 54.4011 17.5253 54.4011 18.4C54.4011 20.2667 53.9851 21.7067 53.1531 22.72C52.3317 23.7227 51.1637 24.224 49.6491 24.224C48.8384 24.224 48.1344 24.0853 47.5371 23.808C46.9397 23.5307 46.4437 23.136 46.0491 22.624C45.6651 22.112 45.3771 21.4987 45.1851 20.784C44.9931 20.0693 44.8971 19.2747 44.8971 18.4ZM47.2011 18.4C47.2011 18.9653 47.2491 19.488 47.3451 19.968C47.4411 20.4373 47.5851 20.8427 47.7771 21.184C47.9797 21.5253 48.2357 21.792 48.5451 21.984C48.8544 22.176 49.2224 22.272 49.6491 22.272C50.4277 22.272 51.0304 21.968 51.4571 21.36C51.8837 20.752 52.0971 19.7653 52.0971 18.4C52.0971 17.856 52.0491 17.3493 51.9531 16.88C51.8677 16.4107 51.7291 16 51.5371 15.648C51.3451 15.296 51.0944 15.024 50.7851 14.832C50.4757 14.6293 50.0971 14.528 49.6491 14.528C48.8704 14.528 48.2677 14.8427 47.8411 15.472C47.4144 16.0907 47.2011 17.0667 47.2011 18.4ZM57.9358 12.8V16.352C57.9358 16.992 58.0585 17.472 58.3038 17.792C58.5598 18.1013 58.9758 18.256 59.5518 18.256C59.9571 18.256 60.3358 18.2133 60.6878 18.128C61.0505 18.032 61.3385 17.8933 61.5518 17.712V12.8H63.7438V24H61.5518V19.488C61.2745 19.648 60.9011 19.7973 60.4318 19.936C59.9731 20.064 59.4238 20.128 58.7838 20.128C58.3358 20.128 57.9251 20.0747 57.5518 19.968C57.1891 19.8507 56.8691 19.6693 56.5918 19.424C56.3251 19.168 56.1171 18.848 55.9678 18.464C55.8185 18.0693 55.7438 17.5947 55.7438 17.04V12.8H57.9358ZM69.4149 17.744L69.7349 19.2H69.8309L70.0869 17.696L71.7669 12.8H74.0229L71.0469 20.544C70.8123 21.152 70.5829 21.68 70.3589 22.128C70.1456 22.576 69.9109 22.9493 69.6549 23.248C69.4096 23.536 69.1323 23.7547 68.8229 23.904C68.5136 24.0427 68.1509 24.112 67.7349 24.112C67.3829 24.112 67.0949 24.0853 66.8709 24.032C66.6576 23.9893 66.4229 23.888 66.1669 23.728L66.7269 21.952C66.9083 22.048 67.0736 22.1067 67.2229 22.128C67.3723 22.1493 67.5323 22.16 67.7029 22.16C68.2043 22.16 68.5563 21.7653 68.7589 20.976L64.5669 12.8H67.1429L69.4149 17.744ZM85.7081 23.536C85.3667 23.7813 84.9294 23.9573 84.3961 24.064C83.8734 24.1707 83.3347 24.224 82.7801 24.224C82.1081 24.224 81.4681 24.1227 80.8601 23.92C80.2627 23.7067 79.7347 23.3707 79.2761 22.912C78.8174 22.4427 78.4494 21.84 78.1721 21.104C77.9054 20.3573 77.7721 19.456 77.7721 18.4C77.7721 17.3013 77.9214 16.384 78.2201 15.648C78.5294 14.9013 78.9241 14.304 79.4041 13.856C79.8947 13.3973 80.4387 13.072 81.0361 12.88C81.6334 12.6773 82.2307 12.576 82.8281 12.576C83.4681 12.576 84.0067 12.6187 84.4441 12.704C84.8921 12.7893 85.2601 12.8907 85.5481 13.008L85.1161 14.864C84.8707 14.7467 84.5774 14.6613 84.2361 14.608C83.9054 14.5547 83.5001 14.528 83.0201 14.528C82.1347 14.528 81.4201 14.8427 80.8761 15.472C80.3427 16.1013 80.0761 17.0773 80.0761 18.4C80.0761 18.976 80.1401 19.504 80.2681 19.984C80.3961 20.4533 80.5881 20.8587 80.8441 21.2C81.1107 21.5307 81.4361 21.792 81.8201 21.984C82.2147 22.1653 82.6681 22.256 83.1801 22.256C83.6601 22.256 84.0654 22.208 84.3961 22.112C84.7267 22.016 85.0147 21.8933 85.2601 21.744L85.7081 23.536ZM89.2536 17.36H90.7416C90.8802 15.8347 91.3282 14.656 92.0856 13.824C92.8429 12.992 93.9042 12.576 95.2696 12.576C96.0802 12.576 96.7736 12.7147 97.3496 12.992C97.9256 13.2693 98.3949 13.664 98.7576 14.176C99.1309 14.688 99.4029 15.3013 99.5736 16.016C99.7549 16.7307 99.8456 17.5253 99.8456 18.4C99.8456 20.2667 99.4616 21.7067 98.6936 22.72C97.9256 23.7227 96.7842 24.224 95.2696 24.224C94.5656 24.224 93.9416 24.1067 93.3976 23.872C92.8642 23.6373 92.4109 23.3067 92.0376 22.88C91.6642 22.4533 91.3709 21.936 91.1576 21.328C90.9442 20.72 90.8056 20.048 90.7416 19.312H89.2536V24H87.0616V12.8H89.2536V17.36ZM92.9816 18.4C92.9816 18.9653 93.0189 19.488 93.0936 19.968C93.1789 20.4373 93.3069 20.8427 93.4776 21.184C93.6589 21.5253 93.8936 21.792 94.1816 21.984C94.4802 22.176 94.8429 22.272 95.2696 22.272C96.0482 22.272 96.6189 21.968 96.9816 21.36C97.3549 20.752 97.5416 19.7653 97.5416 18.4C97.5416 17.856 97.5042 17.3493 97.4296 16.88C97.3656 16.4107 97.2482 16 97.0776 15.648C96.9069 15.296 96.6722 15.024 96.3736 14.832C96.0856 14.6293 95.7176 14.528 95.2696 14.528C94.5016 14.528 93.9256 14.8427 93.5416 15.472C93.1682 16.0907 92.9816 17.0667 92.9816 18.4ZM110.948 26H109.396L109.156 24H101.956L101.716 26H100.164V22.048H101.348C101.423 21.9307 101.545 21.6693 101.716 21.264C101.887 20.8587 102.057 20.288 102.228 19.552C102.399 18.8053 102.543 17.8773 102.66 16.768C102.777 15.648 102.831 14.3253 102.82 12.8H109.524V22.048H110.948V26ZM107.332 22.048V14.752H104.852C104.788 16.6507 104.633 18.208 104.388 19.424C104.153 20.6293 103.913 21.504 103.668 22.048H107.332ZM117.707 21.52H114.267L113.419 24H111.227L115.259 12.72H116.875L120.907 24H118.603L117.707 21.52ZM114.827 19.76H117.227L116.395 17.264L116.059 15.504H115.979L115.643 17.28L114.827 19.76ZM122.514 12.8H124.658V18.064L124.242 20.672H122.93L122.514 18.064V12.8ZM122.29 22.944C122.29 22.5707 122.407 22.2773 122.642 22.064C122.877 21.84 123.186 21.728 123.57 21.728C123.975 21.728 124.295 21.84 124.53 22.064C124.765 22.2773 124.882 22.5707 124.882 22.944C124.882 23.3173 124.765 23.616 124.53 23.84C124.295 24.064 123.975 24.176 123.57 24.176C123.186 24.176 122.877 24.064 122.642 23.84C122.407 23.616 122.29 23.3173 122.29 22.944Z" fill="white"/>
</svg>

<svg xmlns="http://www.w3.org/2000/svg" width="160" height="36" fill="none"><rect width="160" height="36" fill="#756157" rx="4"/><path fill="#fff" d="m37.98 18.3-3.12-5.5h2.64l1.73 3.23.38 1.14.37-1.14 1.81-3.23h2.38l-3.23 5.4 3.4 5.8h-2.61l-1.97-3.46-.43-1.18-.42 1.18L36.93 24h-2.39l3.44-5.7Zm6.92.1c0-1.87.4-3.3 1.23-4.3.82-1.02 2-1.52 3.52-1.52.8 0 1.5.13 2.1.41.6.28 1.09.67 1.48 1.19.4.5.7 1.12.88 1.84.2.71.3 1.5.3 2.38 0 1.87-.42 3.3-1.26 4.32-.82 1-1.99 1.5-3.5 1.5-.81 0-1.52-.13-2.11-.41-.6-.28-1.1-.67-1.5-1.19a5.34 5.34 0 0 1-.85-1.84c-.2-.71-.3-1.5-.3-2.38Zm2.3 0a8 8 0 0 0 .15 1.57c.1.47.24.87.43 1.21a2.05 2.05 0 0 0 1.87 1.09c.78 0 1.38-.3 1.8-.91.43-.6.65-1.6.65-2.96 0-.54-.05-1.05-.15-1.52a4.09 4.09 0 0 0-.41-1.23 2.03 2.03 0 0 0-1.89-1.12c-.78 0-1.38.31-1.8.94-.44.62-.65 1.6-.65 2.93Zm10.74-5.6v3.55c0 .64.12 1.12.36 1.44.26.31.68.47 1.25.47.4 0 .79-.05 1.14-.13.36-.1.65-.24.86-.42V12.8h2.2V24h-2.2v-4.51a5.28 5.28 0 0 1-2.77.64c-.44 0-.85-.06-1.23-.16-.36-.12-.68-.3-.96-.55a2.63 2.63 0 0 1-.62-.96c-.15-.4-.23-.87-.23-1.42V12.8h2.2Zm11.47 4.94.32 1.46h.1l.26-1.5 1.68-4.9h2.25l-2.97 7.74c-.24.61-.47 1.14-.7 1.59-.2.45-.44.82-.7 1.12-.24.29-.52.5-.83.65-.3.14-.67.21-1.09.21-.35 0-.64-.02-.86-.08a2.16 2.16 0 0 1-.7-.3l.56-1.78c.18.1.34.16.5.18.14.02.3.03.47.03.5 0 .86-.4 1.06-1.18l-4.2-8.18h2.58l2.27 4.94Zm16.3 5.8c-.34.24-.78.42-1.31.52-.53.11-1.07.16-1.62.16-.67 0-1.31-.1-1.92-.3a4.23 4.23 0 0 1-1.58-1 5.14 5.14 0 0 1-1.1-1.82 8.07 8.07 0 0 1-.4-2.7c0-1.1.14-2.02.44-2.75.3-.75.7-1.35 1.18-1.8a4.3 4.3 0 0 1 1.64-.97c.6-.2 1.2-.3 1.79-.3.64 0 1.18.04 1.61.12.45.09.82.2 1.1.3l-.42 1.86c-.25-.11-.54-.2-.88-.25a7.8 7.8 0 0 0-1.22-.08c-.89 0-1.6.31-2.14.94-.54.63-.8 1.6-.8 2.93 0 .58.06 1.1.19 1.58.13.47.32.88.57 1.22.27.33.6.6.98.78.4.19.85.28 1.36.28.48 0 .89-.05 1.22-.15.33-.1.61-.22.86-.37l.45 1.8Zm3.54-6.18h1.5a5.9 5.9 0 0 1 1.34-3.54 4.09 4.09 0 0 1 3.18-1.24c.81 0 1.5.13 2.08.41.58.28 1.04.67 1.4 1.19.38.5.65 1.12.82 1.84.18.71.28 1.5.28 2.38 0 1.87-.39 3.3-1.16 4.32-.76 1-1.9 1.5-3.42 1.5-.7 0-1.33-.11-1.87-.35a3.83 3.83 0 0 1-1.36-.99 4.68 4.68 0 0 1-.88-1.55 8.23 8.23 0 0 1-.42-2.02h-1.49V24h-2.19V12.8h2.2v4.56Zm3.73 1.04c0 .57.04 1.09.11 1.57.09.47.22.87.39 1.21.18.35.41.61.7.8.3.2.66.3 1.09.3.78 0 1.35-.31 1.71-.92.37-.6.56-1.6.56-2.96a9.7 9.7 0 0 0-.11-1.52 4.08 4.08 0 0 0-.35-1.23 1.87 1.87 0 0 0-1.8-1.12 1.9 1.9 0 0 0-1.74.94c-.37.62-.56 1.6-.56 2.93Zm17.97 7.6h-1.55l-.24-2h-7.2l-.24 2h-1.56v-3.95h1.19a11.05 11.05 0 0 0 .88-2.5c.17-.74.31-1.67.43-2.78.12-1.12.17-2.44.16-3.97h6.7v9.25h1.43V26Zm-3.62-3.95v-7.3h-2.48a29.4 29.4 0 0 1-.46 4.67 13 13 0 0 1-.72 2.63h3.66Zm10.38-.53h-3.44l-.85 2.48h-2.2l4.04-11.28h1.61L120.92 24h-2.3l-.9-2.48Zm-2.88-1.76h2.4l-.84-2.5-.33-1.76h-.08l-.34 1.78-.81 2.48Zm7.68-6.96h2.15v5.26l-.42 2.61h-1.31l-.42-2.6V12.8Zm-.22 10.14c0-.37.12-.66.35-.88.24-.22.55-.33.93-.33.4 0 .73.11.96.33.23.22.35.51.35.88 0 .38-.11.68-.35.9-.23.22-.56.34-.96.34-.38 0-.7-.12-.93-.34a1.18 1.18 0 0 1-.35-.9Z"/></svg>
